X: 1
T: Mazure (mazurka)
C: Yann-Fanch Perroches
S: NEFFA 2019 French Jam handout p.7 #1
Z: 2019 John Chambers <jc:trillian.mit.edu>
M: 3/4
L: 1/8
K: G
DG |:\
"G"B2 BG BG | "Am"A3 G FG |\
"D"AG Ac BA |[1 "G"B2 G2 DG :|[2 "G"G4 Bc |
|:\
"G"d2 "(Em)"dB dB | "Am"cB A3 B |\
[1 "D"cB ce dc | "G"dc B3 c :|\
[2 "D"cB Ac BA | "G"G4 |]
